packages/vibrant-icons/assets/icons/AlphabetA/Fill.svg

<svg width="24" height="24" viewBox="0 0 24 24" fill="none" xmlns="http://www.w3.org/2000/svg">
<path fill-rule="evenodd" clip-rule="evenodd" d="M13.6466 2.13505C13.6188 2.05425 13.5429 2 13.4574 2H10.5424C10.457 2 10.381 2.05425 10.3533 2.13505L3.70876 21.485C3.66417 21.6149 3.76064 21.75 3.89791 21.75H5.88014C5.96504 21.75 6.04069 21.6964 6.06883 21.6163L8.00703 16.0999H15.9928L17.931 21.6163C17.9592 21.6964 18.0348 21.75 18.1197 21.75H20.1019C20.2392 21.75 20.3357 21.6149 20.2911 21.485L13.6466 2.13505ZM15.2199 13.8999L11.9999 4.7355L8.78 13.8999H15.2199Z" fill="#0C0C0C"/>
</svg>

<svg xmlns="http://www.w3.org/2000/svg" width="24" height="24" fill="none"><path fill="#0C0C0C" fill-rule="evenodd" d="M13.647 2.135a.2.2 0 0 0-.19-.135h-2.915a.2.2 0 0 0-.189.135L3.71 21.485a.2.2 0 0 0 .189.265H5.88a.2.2 0 0 0 .189-.134L8.007 16.1h7.986l1.938 5.516a.2.2 0 0 0 .189.134h1.982a.2.2 0 0 0 .19-.265zM15.22 13.9 12 4.736 8.78 13.9z" clip-rule="evenodd"/></svg>
